X:1
T:Title
%%score ( 1 2 3 ) 4
L:1/8
M:4/4
K:G
V:1 treble nm="Choir Aahs, Staff"
V:2 treble 
V:3 treble 
V:4 bass nm="Choir Aahs, Staff-1"
V:1
 [B,B]2 [B,D]2 [CB]2 [CA]2 | [B,G]4 [CE]4 | [DG]2 [DF]2 [DG]2 [DB]2 | [Fd]8 | z4 e4 | %5
w: By~Thomas~Morley * * *|||||
 [Ec]2 E2 [EB]2 [EA]2 | [DG]4 [DA]4 | [DG]8 | D2 [DE]2 [DF]2 G2 | [FB]4 [FA]4 | %10
w: |||||
 [GB]2 G2 [Ad]2 [GB]2 | [FA]8 | [Gc]3 [Gc] [GB]2 [Ce]2 | [Dd]2 [^DB]2 [EG]2 [^CA]2 | [DB]4 [CA]4 | %15
w: |||||
 [B,G]8 |] %16
w: |
V:2
 x8 | x8 | x8 | x8 | [Gd]2 [=F^d]2 E2 z =d | x8 | x8 | x8 | x8 | x8 | x8 | x8 | x8 | x8 | x8 | %15
 x8 |] %16
V:3
 x8 | x8 | x8 | x8 | z4 z2 E2 | x8 | x8 | x8 | x8 | x8 | x8 | x8 | x8 | x8 | x8 | x8 |] %16
V:4
 [G,,D,]2 [G,,D,]2 [G,,E,]2 [G,,F,]2 | [G,,G,]4 [C,G,]4 | [B,,G,]2 [A,,C]2 [G,,B,]2 [G,,G,]2 | %3
 [D,A,]8 | [B,D]2 [A,C]2 [^G,B,]2 [E,G,]2 | A,2 [A,,C]2 [B,,D]2 [C,C]2 | [D,B,]4 [D,C]4 | %7
 [G,,B,]8 | [D,F,]2 [D,G,]2 [D,A,]2 [D,B,]2 | [D,D]4 [D,C]4 | [G,B,]2 [B,D]2 [F,D]2 [G,D]2 | %11
 [D,D]8 | [E,G,]3 [E,G,] [D,G,]2 [C,G,]2 | [B,,G,]2 [B,,F,]2 [E,G,]2 [E,G,]2 | [D,G,]4 [D,F,]4 | %15
 [G,,G,]8 |] %16

